resources/icons/table-rows.svg

<?xml version="1.0" encoding="UTF-8" standalone="no"?>
<svg
   viewBox="0 0 1000 1000"
   preserveAspectRatio="xMidYMid meet"
   version="1.1"
   id="svg4"
   sodipodi:docname="table-rows.svg"
   inkscape:version="1.1.1 (3bf5ae0d25, 2021-09-20)"
   xmlns:inkscape="http://www.inkscape.org/namespaces/inkscape"
   xmlns:sodipodi="http://sodipodi.sourceforge.net/DTD/sodipodi-0.dtd"
   xmlns="http://www.w3.org/2000/svg"
   xmlns:svg="http://www.w3.org/2000/svg">
  <defs
     id="defs8" />
  <sodipodi:namedview
     id="namedview6"
     pagecolor="#ffffff"
     bordercolor="#666666"
     borderopacity="1.0"
     inkscape:pageshadow="2"
     inkscape:pageopacity="0.0"
     inkscape:pagecheckerboard="0"
     showgrid="false"
     inkscape:zoom="0.873"
     inkscape:cx="500"
     inkscape:cy="500.57274"
     inkscape:window-width="1941"
     inkscape:window-height="1390"
     inkscape:window-x="969"
     inkscape:window-y="379"
     inkscape:window-maximized="0"
     inkscape:current-layer="svg4" />
  <path
     id="rect1109"
     style="fill:#000000;stroke-width:1.05121;paint-order:fill markers stroke"
     d="m 0,0 v 100 100 100 100 100 100 100 100 100 100 h 100 800 100 V 900 100 0 H 100 Z M 80,180 H 920 V 320 H 80 Z m 0,200 H 920 V 520 H 80 Z m 0,200 H 920 V 720 H 80 Z m 0,200 H 920 V 920 H 80 Z"
     sodipodi:nodetypes="ccccccccccccccccccccccccccccccccccccccc" />
</svg>

<?xml version="1.0" encoding="UTF-8" standalone="no"?>
<svg
   viewBox="0 0 1000 1000"
   preserveAspectRatio="xMidYMid meet"
   version="1.1"
   id="svg4"
   sodipodi:docname="table-rows.svg"
   inkscape:version="1.1.1 (3bf5ae0d25, 2021-09-20)"
   xmlns:inkscape="http://www.inkscape.org/namespaces/inkscape"
   xmlns:sodipodi="http://sodipodi.sourceforge.net/DTD/sodipodi-0.dtd"
   xmlns="http://www.w3.org/2000/svg"
   xmlns:svg="http://www.w3.org/2000/svg">
  <defs
     id="defs8" />
  <sodipodi:namedview
     id="namedview6"
     pagecolor="#ffffff"
     bordercolor="#666666"
     borderopacity="1.0"
     inkscape:pageshadow="2"
     inkscape:pageopacity="0.0"
     inkscape:pagecheckerboard="0"
     showgrid="false"
     inkscape:zoom="0.873"
     inkscape:cx="500"
     inkscape:cy="500.57274"
     inkscape:window-width="1941"
     inkscape:window-height="1390"
     inkscape:window-x="969"
     inkscape:window-y="379"
     inkscape:window-maximized="0"
     inkscape:current-layer="svg4" />
  <path
     id="rect1109"
     style="fill:#000000;stroke-width:1.05121;paint-order:fill markers stroke"
     d="M 0 0 L 0 100 L 0 200 L 0 300 L 0 400 L 0 500 L 0 600 L 0 700 L 0 800 L 0 900 L 0 1000 L 100 1000 L 900 1000 L 1000 1000 L 1000 900 L 1000 100 L 1000 0 L 100 0 L 0 0 z M 100 200 L 900 200 L 900 300 L 100 300 L 100 200 z M 100 400 L 900 400 L 900 500 L 100 500 L 100 400 z M 100 600 L 900 600 L 900 700 L 100 700 L 100 600 z M 100 800 L 900 800 L 900 900 L 100 900 L 100 800 z " />
</svg>
